images/idrt.svg

<svg height="250" viewBox="0 0 250 250" width="250" xmlns="http://www.w3.org/2000/svg"><path d="m241.488281 80c-24.765625-64.324219-96.988281-96.394531-161.3125-71.625l-.25.101562c-6.203125 2.386719-12.203125 5.277344-17.9375 8.636719-33.433593 19.546875-55.921875 53.488281-60.882812 91.898438-4.960938 38.410156 8.160156 76.949219 35.53125 104.351562 7.75 7.808594 16.515625 14.535157 26.0625 20 32.714843 18.789063 72.167969 21.796875 107.355469 8.1875 35.183593-13.613281 62.339843-42.386719 73.894531-78.300781 3.402343-10.457031 5.375-21.328125 5.863281-32.3125.8125-17.375-2.023438-34.726562-8.324219-50.9375zm0 0" fill="#b13932"/><path d="m241.488281 80c6.289063 16.21875 9.109375 33.574219 8.285157 50.949219-3.921876 5.226562-8.089844 10.261719-12.5 15.113281-27.691407-63.933594-84.527344-110.582031-152.636719-125.273438 4.453125-6.257812 9.234375-12.269531 14.324219-18.015624 60.023437-12.726563 120.410156 19.992187 142.527343 77.226562zm0 0" fill="#cc4641"/><path d="m249.773438 130.898438c-.496094 10.984374-2.464844 21.847656-5.859376 32.300781-1.015624-3.035157-2.125-6.0625-3.3125-9.050781-1.101562-2.722657-2.203124-5.511719-3.300781-8.136719 4.382813-4.847657 8.550781-9.886719 12.5-15.113281zm0 0" fill="#cc4641"/><path d="m240.648438 154.148438c1.164062 3.015624 2.277343 6.039062 3.3125 9.050781-11.550782 35.914062-38.710938 64.691406-73.894532 78.300781-35.1875 13.613281-74.640625 10.601562-107.355468-8.1875-1.25-2.914062-2.5-5.863281-3.75-8.886719-1.097657-2.75-2.0625-5.511719-3-8.261719 68.140624 6.589844 135.386718-19.421874 181.351562-70.152343 1.148438 2.675781 2.238281 5.464843 3.3125 8.136719zm0 0" fill="#b13932"/><path d="m237.300781 146.011719c-45.945312 50.765625-113.195312 76.8125-181.351562 70.238281-22.535157-65.941406-11.863281-138.707031 28.664062-195.398438 68.101563 14.652344 124.957031 61.257813 152.6875 125.160157zm0 0" fill="#be4137"/><path d="m98.976562 2.773438c-5.09375 5.75-9.878906 11.761718-14.339843 18.015624-7.488281-1.636718-15.0625-2.867187-22.6875-3.675781 5.746093-3.363281 11.757812-6.253906 17.976562-8.636719 6.191407-2.394531 12.5625-4.296874 19.050781-5.703124zm0 0" fill="#a5322d"/><path d="m61.9375 17.113281c7.628906.8125 15.207031 2.039063 22.699219 3.675781-40.550781 56.703126-51.226563 129.5-28.660157 195.460938-6.515624-.636719-13-1.5625-19.402343-2.800781-27.398438-27.386719-40.539063-65.9375-35.574219-104.359375s27.476562-72.367188 60.9375-91.890625zm0 0" fill="#a5322d"/><path d="m58.976562 224.425781c1.109376 3.023438 2.375 5.972657 3.75 8.886719-9.550781-5.46875-18.320312-12.195312-26.078124-20 6.402343 1.25 12.890624 2.199219 19.390624 2.800781.910157 2.75 1.910157 5.511719 3 8.261719zm0 0" fill="#b13932"/><path d="m41.164062 53.976562h41.886719c5.636719-.035156 11.265625.496094 16.800781 1.585938 5.089844.941406 9.96875 2.8125 14.386719 5.511719 4.179688 2.605469 7.621094 6.238281 10 10.550781 2.5 4.417969 3.75 10.039062 3.75 16.863281 0 8.75-2.414062 16.074219-7.238281 21.972657-4.824219 5.902343-11.707031 9.496093-20.648438 10.789062l31.960938 53.3125h-25.8125l-27.949219-51.085938h-15.675781v51.148438h-21.460938zm38.148438 51.097657c3.074219 0 6.164062-.136719 9.210938-.425781 2.898437-.242188 5.738281-.929688 8.425781-2.035157 2.511719-1.050781 4.675781-2.78125 6.25-5 1.589843-2.214843 2.375-5.300781 2.375-9.289062.148437-3-.621094-5.972657-2.199219-8.523438-1.457031-2.109375-3.46875-3.769531-5.8125-4.800781-2.519531-1.101562-5.191406-1.8125-7.925781-2.101562-2.78125-.34375-5.582031-.511719-8.386719-.511719h-18.625v32.6875zm54.074219-17.5h19.414062v12.261719h.335938c2.734375-4.796876 6.910156-8.609376 11.9375-10.898438 5.078125-2.3125 10.597656-3.488281 16.175781-3.449219 5.792969-.121093 11.542969.992188 16.875 3.261719 4.847656 2.105469 9.195312 5.210938 12.761719 9.113281 3.574219 3.925781 6.300781 8.546875 8.011719 13.574219 1.847656 5.433594 2.769531 11.136719 2.726562 16.875.054688 5.757812-.917969 11.484375-2.875 16.898438-1.796875 5.058593-4.539062 9.726562-8.085938 13.75-3.492187 3.871093-7.75 6.972656-12.5 9.113281-5.042968 2.238281-10.511718 3.363281-16.027343 3.300781-3.441407.027344-6.875-.390625-10.210938-1.25-2.726562-.699219-5.359375-1.726562-7.839843-3.0625-2.070313-1.109375-4.011719-2.453125-5.785157-4-1.4375-1.257812-2.746093-2.652344-3.914062-4.164062h-.636719v49.214843h-20.363281zm67.863281 40.839843c.011719-3.140624-.539062-6.257812-1.625-9.203124-1.050781-2.898438-2.675781-5.5625-4.773438-7.824219-7.191406-7.398438-18.199218-9.589844-27.675781-5.511719-2.867187 1.316406-5.441406 3.191406-7.574219 5.511719-2.097656 2.265625-3.71875 4.925781-4.777343 7.824219-2.160157 5.945312-2.160157 12.457031 0 18.402343 1.054687 2.902344 2.679687 5.566407 4.777343 7.835938 7.203126 7.375 18.214844 9.539062 27.671876 5.4375 2.859374-1.296875 5.433593-3.144531 7.578124-5.4375 2.097657-2.269531 3.71875-4.933594 4.773438-7.835938 1.082031-2.949219 1.628906-6.0625 1.625-9.199219zm0 0" fill="#fff"/></svg>

<svg xmlns="http://www.w3.org/2000/svg" xmlns:xlink="http://www.w3.org/1999/xlink" width="250px" height="250px" viewBox="0 0 250 250" version="1.1">
<g id="surface1">
<path style=" stroke:none;fill-rule:nonzero;fill:rgb(69.411767%,22.352941%,19.607843%);fill-opacity:1;" d="M 241.488281 80 C 216.722656 15.675781 144.5 -16.394531 80.175781 8.375 L 79.925781 8.476562 C 73.722656 10.863281 67.722656 13.753906 61.988281 17.113281 C 28.554688 36.660156 6.066406 70.601562 1.105469 109.011719 C -3.855469 147.421875 9.265625 185.960938 36.636719 213.363281 C 44.386719 221.171875 53.152344 227.898438 62.699219 233.363281 C 95.414062 252.152344 134.867188 255.160156 170.054688 241.550781 C 205.238281 227.9375 232.394531 199.164062 243.949219 163.25 C 247.351562 152.792969 249.324219 141.921875 249.8125 130.9375 C 250.625 113.5625 247.789062 96.210938 241.488281 80 Z M 241.488281 80 "/>
<path style=" stroke:none;fill-rule:nonzero;fill:rgb(80.000001%,27.450982%,25.490198%);fill-opacity:1;" d="M 241.488281 80 C 247.777344 96.21875 250.597656 113.574219 249.773438 130.949219 C 245.851562 136.175781 241.683594 141.210938 237.273438 146.0625 C 209.582031 82.128906 152.746094 35.480469 84.636719 20.789062 C 89.089844 14.53125 93.871094 8.519531 98.960938 2.773438 C 158.984375 -9.953125 219.371094 22.765625 241.488281 80 Z M 241.488281 80 "/>
<path style=" stroke:none;fill-rule:nonzero;fill:rgb(80.000001%,27.450982%,25.490198%);fill-opacity:1;" d="M 249.773438 130.898438 C 249.277344 141.882812 247.308594 152.746094 243.914062 163.199219 C 242.898438 160.164062 241.789062 157.136719 240.601562 154.148438 C 239.5 151.425781 238.398438 148.636719 237.300781 146.011719 C 241.683594 141.164062 245.851562 136.125 249.800781 130.898438 Z M 249.773438 130.898438 "/>
<path style=" stroke:none;fill-rule:nonzero;fill:rgb(69.411767%,22.352941%,19.607843%);fill-opacity:1;" d="M 240.648438 154.148438 C 241.8125 157.164062 242.925781 160.1875 243.960938 163.199219 C 232.410156 199.113281 205.25 227.890625 170.066406 241.5 C 134.878906 255.113281 95.425781 252.101562 62.710938 233.3125 C 61.460938 230.398438 60.210938 227.449219 58.960938 224.425781 C 57.863281 221.675781 56.898438 218.914062 55.960938 216.164062 C 124.101562 222.753906 191.347656 196.742188 237.3125 146.011719 C 238.460938 148.6875 239.550781 151.476562 240.625 154.148438 Z M 240.648438 154.148438 "/>
<path style=" stroke:none;fill-rule:nonzero;fill:rgb(74.509805%,25.490198%,21.568628%);fill-opacity:1;" d="M 237.300781 146.011719 C 191.355469 196.777344 124.105469 222.824219 55.949219 216.25 C 33.414062 150.308594 44.085938 77.542969 84.613281 20.851562 C 152.714844 35.503906 209.570312 82.109375 237.300781 146.011719 Z M 237.300781 146.011719 "/>
<path style=" stroke:none;fill-rule:nonzero;fill:rgb(64.705884%,19.607843%,17.647059%);fill-opacity:1;" d="M 98.976562 2.773438 C 93.882812 8.523438 89.097656 14.535156 84.636719 20.789062 C 77.148438 19.152344 69.574219 17.921875 61.949219 17.113281 C 67.695312 13.75 73.707031 10.859375 79.925781 8.476562 C 86.117188 6.082031 92.488281 4.179688 98.976562 2.773438 Z M 98.976562 2.773438 "/>
<path style=" stroke:none;fill-rule:nonzero;fill:rgb(64.705884%,19.607843%,17.647059%);fill-opacity:1;" d="M 61.9375 17.113281 C 69.566406 17.925781 77.144531 19.152344 84.636719 20.789062 C 44.085938 77.492188 33.410156 150.289062 55.976562 216.25 C 49.460938 215.613281 42.976562 214.6875 36.574219 213.449219 C 9.175781 186.0625 -3.964844 147.511719 1 109.089844 C 5.964844 70.667969 28.476562 36.722656 61.9375 17.199219 Z M 61.9375 17.113281 "/>
<path style=" stroke:none;fill-rule:nonzero;fill:rgb(69.411767%,22.352941%,19.607843%);fill-opacity:1;" d="M 58.976562 224.425781 C 60.085938 227.449219 61.351562 230.398438 62.726562 233.3125 C 53.175781 227.84375 44.40625 221.117188 36.648438 213.3125 C 43.050781 214.5625 49.539062 215.511719 56.039062 216.113281 C 56.949219 218.863281 57.949219 221.625 59.039062 224.375 Z M 58.976562 224.425781 "/>
<path style=" stroke:none;fill-rule:nonzero;fill:rgb(100%,100%,100%);fill-opacity:1;" d="M 41.164062 53.976562 L 83.050781 53.976562 C 88.6875 53.941406 94.316406 54.472656 99.851562 55.5625 C 104.941406 56.503906 109.820312 58.375 114.238281 61.074219 C 118.417969 63.679688 121.859375 67.3125 124.238281 71.625 C 126.738281 76.042969 127.988281 81.664062 127.988281 88.488281 C 127.988281 97.238281 125.574219 104.5625 120.75 110.460938 C 115.925781 116.363281 109.042969 119.957031 100.101562 121.25 L 132.0625 174.5625 L 106.25 174.5625 L 78.300781 123.476562 L 62.625 123.476562 L 62.625 174.625 L 41.164062 174.625 Z M 79.3125 105.074219 C 82.386719 105.074219 85.476562 104.9375 88.523438 104.648438 C 91.421875 104.40625 94.261719 103.71875 96.949219 102.613281 C 99.460938 101.5625 101.625 99.832031 103.199219 97.613281 C 104.789062 95.398438 105.574219 92.3125 105.574219 88.324219 C 105.722656 85.324219 104.953125 82.351562 103.375 79.800781 C 101.917969 77.691406 99.90625 76.03125 97.5625 75 C 95.042969 73.898438 92.371094 73.1875 89.636719 72.898438 C 86.855469 72.554688 84.054688 72.386719 81.25 72.386719 L 62.625 72.386719 L 62.625 105.074219 Z M 133.386719 87.574219 L 152.800781 87.574219 L 152.800781 99.835938 L 153.136719 99.835938 C 155.871094 95.039062 160.046875 91.226562 165.074219 88.9375 C 170.152344 86.625 175.671875 85.449219 181.25 85.488281 C 187.042969 85.367188 192.792969 86.480469 198.125 88.75 C 202.972656 90.855469 207.320312 93.960938 210.886719 97.863281 C 214.460938 101.789062 217.1875 106.410156 218.898438 111.4375 C 220.746094 116.871094 221.667969 122.574219 221.625 128.3125 C 221.679688 134.070312 220.707031 139.796875 218.75 145.210938 C 216.953125 150.269531 214.210938 154.9375 210.664062 158.960938 C 207.171875 162.832031 202.914062 165.933594 198.164062 168.074219 C 193.121094 170.3125 187.652344 171.4375 182.136719 171.375 C 178.695312 171.402344 175.261719 170.984375 171.925781 170.125 C 169.199219 169.425781 166.566406 168.398438 164.085938 167.0625 C 162.015625 165.953125 160.074219 164.609375 158.300781 163.0625 C 156.863281 161.804688 155.554688 160.410156 154.386719 158.898438 L 153.75 158.898438 L 153.75 208.113281 L 133.386719 208.113281 Z M 201.25 128.414062 C 201.261719 125.273438 200.710938 122.15625 199.625 119.210938 C 198.574219 116.3125 196.949219 113.648438 194.851562 111.386719 C 187.660156 103.988281 176.652344 101.796875 167.175781 105.875 C 164.308594 107.191406 161.734375 109.066406 159.601562 111.386719 C 157.503906 113.652344 155.882812 116.3125 154.824219 119.210938 C 152.664062 125.15625 152.664062 131.667969 154.824219 137.613281 C 155.878906 140.515625 157.503906 143.179688 159.601562 145.449219 C 166.804688 152.824219 177.816406 154.988281 187.273438 150.886719 C 190.132812 149.589844 192.707031 147.742188 194.851562 145.449219 C 196.949219 143.179688 198.570312 140.515625 199.625 137.613281 C 200.707031 134.664062 201.253906 131.550781 201.25 128.414062 Z M 201.25 128.414062 "/>
</g>
</svg>
